frontend/src/assets/images/Mastercard.svg

<svg width="23" height="14" viewBox="0 0 23 14" fill="none" xmlns="http://www.w3.org/2000/svg">
<g id="Mastercard">
<path id="Left" d="M15.5771 0.0300293C19.322 0.0300293 22.3584 3.02992 22.3584 6.73022C22.3583 10.4304 19.322 13.4304 15.5771 13.4304C13.8982 13.4304 12.3629 12.8256 11.1787 11.8269C9.99451 12.8255 8.45913 13.4304 6.78027 13.4304C3.03566 13.4302 0.000106927 10.4303 0 6.73022C0 3.03005 3.03559 0.0302516 6.78027 0.0300293C8.45899 0.0300293 9.99455 0.634107 11.1787 1.63257C12.3629 0.633974 13.8983 0.0300567 15.5771 0.0300293Z" fill="#ED0006"/>
<path id="Right" d="M15.5774 0.0300293C19.3222 0.0301105 22.3577 3.02997 22.3577 6.73022C22.3576 10.4304 19.3221 13.4303 15.5774 13.4304C13.8985 13.4304 12.3632 12.8256 11.179 11.8269C12.6361 10.598 13.5617 8.77151 13.5618 6.73022C13.5618 4.68873 12.6363 2.86147 11.179 1.63257C12.3631 0.63403 13.8986 0.0300293 15.5774 0.0300293Z" fill="#F9A000"/>
<path id="Middle" d="M11.1785 1.63257C12.636 2.86147 13.5613 4.68859 13.5613 6.73022C13.5612 8.77165 12.6358 10.598 11.1785 11.8269C9.7215 10.5981 8.79669 8.77135 8.79663 6.73022C8.79663 4.68889 9.72129 2.86146 11.1785 1.63257Z" fill="#FF5E00"/>
</g>
</svg>

<svg xmlns="http://www.w3.org/2000/svg" width="23" height="14" fill="none"><path fill="#ED0006" d="M15.577.03c3.745 0 6.781 3 6.781 6.7s-3.036 6.7-6.78 6.7a6.8 6.8 0 0 1-4.4-1.603A6.8 6.8 0 0 1 6.78 13.43c-3.744 0-6.78-3-6.78-6.7S3.036.03 6.78.03c1.679 0 3.215.604 4.399 1.603A6.8 6.8 0 0 1 15.577.03"/><path fill="#F9A000" d="M15.577.03c3.745 0 6.78 3 6.78 6.7s-3.035 6.7-6.78 6.7a6.8 6.8 0 0 1-4.398-1.603 6.65 6.65 0 0 0 2.383-5.097 6.65 6.65 0 0 0-2.383-5.097A6.8 6.8 0 0 1 15.577.03"/><path fill="#FF5E00" d="M11.179 1.633A6.65 6.65 0 0 1 13.56 6.73a6.65 6.65 0 0 1-2.383 5.097A6.65 6.65 0 0 1 8.798 6.73c0-2.041.924-3.869 2.381-5.097"/></svg>
